design-system/icons/edit--labs-icons.svg

<svg width="21" height="20" viewBox="0 0 21 20" fill="none" xmlns="http://www.w3.org/2000/svg">
<g clip-path="url(#clip0_234_212)">
<mask id="mask0_234_212" style="mask-type:alpha" maskUnits="userSpaceOnUse" x="0" y="0" width="24" height="24">
<rect x="0.416626" width="23.0833" height="23.0833" fill="currentColor"/>
</mask>
<g mask="url(#mask0_234_212)">
<path d="M3.35404 17.7083C3.04849 17.7083 2.78807 17.6007 2.57279 17.3854C2.35752 17.1701 2.24988 16.9097 2.24988 16.6042V14.3333C2.24988 14.0417 2.30543 13.7604 2.41654 13.4896C2.52766 13.2187 2.68738 12.9792 2.89571 12.7708L13.8749 1.79167C14.0277 1.63889 14.1978 1.53125 14.3853 1.46875C14.5728 1.40625 14.7638 1.375 14.9582 1.375C15.1527 1.375 15.3367 1.40278 15.5103 1.45833C15.6839 1.51389 15.8471 1.61806 15.9999 1.77083L18.1874 3.95833C18.3402 4.11111 18.4443 4.27778 18.4999 4.45833C18.5554 4.63889 18.5832 4.82639 18.5832 5.02083C18.5832 5.21528 18.552 5.40278 18.4895 5.58333C18.427 5.76389 18.3193 5.93056 18.1665 6.08333L7.18738 17.0625C6.97904 17.2708 6.73946 17.4306 6.46863 17.5417C6.19779 17.6528 5.91654 17.7083 5.62488 17.7083H3.35404ZM14.9374 6.20833L16.1249 5.02083L14.9374 3.85417L13.7499 5.02083L14.9374 6.20833Z" fill="currentColor"/>
</g>
</g>
<defs>
<clipPath id="clip0_234_212">
<rect width="20" height="20" fill="white" transform="translate(0.416626)"/>
</clipPath>
</defs>
</svg>

<svg xmlns="http://www.w3.org/2000/svg" width="21" height="20" fill="none" viewBox="0 0 21 20"><g clip-path="url(#a)"><mask id="b" width="24" height="24" x="0" y="0" maskUnits="userSpaceOnUse" style="mask-type:alpha"><path fill="currentColor" d="M.417 0H23.5v23.083H.417z"/></mask><g mask="url(#b)"><path fill="currentColor" d="M3.354 17.708q-.459 0-.781-.323a1.06 1.06 0 0 1-.323-.78v-2.272a2.2 2.2 0 0 1 .646-1.562L13.875 1.79a1.3 1.3 0 0 1 .51-.322 1.8 1.8 0 0 1 .573-.094 1.8 1.8 0 0 1 .552.083q.26.084.49.313l2.187 2.187q.23.23.313.5t.083.563q0 .291-.093.562-.094.271-.323.5l-10.98 10.98a2.203 2.203 0 0 1-1.563.646zm11.583-11.5 1.188-1.187-1.188-1.167-1.187 1.167z"/></g></g><defs><clipPath id="a"><path fill="#fff" d="M.417 0h20v20h-20z"/></clipPath></defs></svg>
